!!!!SEGMENT: pl-kk--kk-i-6--064-002_lilius-franciszek--missa-pro-defunctis-kyrie.krn
!!!cenid: 16xx:1061
!!!COM: Lilius, Franciszek
!!!COM-rismID: pe30020509
!!!CDT: ~1600-1657
!!!CNT: Polish
!!!OPR: Missa pro defunctis
!!!OTL: Kyrie
!!!OMV: 002
!!!PDT:
!!!AGN:
!!!SMS-siglum: PL-Kk
!!!SMS-shelfmark: Kk.I.6
!!!SMS-shelfwork: 064-002 M
!!!SMS-variant:
!!!SMS-altvar:
!!!NIFC-rismSourceID: 1001135513
!!!NIFC-rismChildID: 1001136594
!!!NIFC-islandoraID: pl-kk:1634
!!!URL-pdf-islandora: https://repozytorium.nifc.pl/islandora/object/pl-kk%3A1634/datastream/PDF/view
!!!URL-scan: https://polish.musicsources.pl/pl/lokalizacje/galeria/rekopisy/6133 @EN{Scan on Polish Music Sources Website} @PL{Skany w portalu Dziedzictwo Muzyki Polskiej w otwartym dostępie}
!!!IIIF:
!!!ONB-nifc: UWAGA: C (skan 0088-0092), T (skan 0200-0206), B (skan 0313-0319) Części Mszy: 1. Requiem aeternam, 2. Kyrie, 3. Requiem aeternam, 4. Absolve Domine, 5. Dies irae, 6. Domine Jesu Christe, 7. Sanctus, 8. Agnus Dei, 9. Lux aeterna
!!!AIN: 1 empty 1 tenor 1 vox
!!!key:
**kern	**text	**kern	**text	**kern	**text
*group1	*	*group1	*	*group1	*
*part3	*part3	*part2	*part2	*part1	*part1
*staff3	*staff3	*staff2	*staff2	*staff1	*staff1
*Iempty	*	*Itenor	*	*Ivox	*
*I"Baſsus.	*	*I"Tenor.	*	*I"Cantus.	*
*I'[B]	*	*I'[T]	*	*I'[S]	*
*clefF4	*	*clefC4	*	*clefC4	*
*k[b-]	*	*k[b-]	*	*k[b-]	*
*F:	*	*F:	*	*F:	*
*M4/4	*	*M4/4	*	*M4/4	*
*met(C)	*	*met(C)	*	*met(C)	*
*	*	*	*	*lig	*
=1-	=1-	=1-	=1-	=1-	=1-
1r	.	0r	.	1F	Ky-
=2-	=2-	=2-	=2-	=2-	=2-
1.C	Ky-	.	.	1G	.
*	*	*	*	*Xlig	*
=3-	=3-	=3-	=3-	=3-	=3-
*	*	*	*	*lig	*
.	.	2r	.	1A	.
1D\	-ri-	1F/	Ky-	.	.
=4-	=4-	=4-	=4-	=4-	=4-
.	.	.	.	1B-	.
2E\	-e	2G/	.	.	.
*	*	*	*	*Xlig	*
=5-	=5-	=5-	=5-	=5-	=5-
2.F\	e-	2A/	-ri-	1A	-ri-
.	.	2.F/	-e	.	.
4E\	.	.	.	.	.
=6-	=6-	=6-	=6-	=6-	=6-
2.D/	.	.	.	1A	-e
.	.	4G/	.	.	.
.	.	2A/	.	.	.
4C/	.	.	.	.	.
=7-	=7-	=7-	=7-	=7-	=7-
2BB-/	.	2d\	e-	1G	e-
2C/	.	2.c\	.	.	.
=8-	=8-	=8-	=8-	=8-	=8-
1FF	.	.	.	1A	.
.	.	4B-\	.	.	.
.	.	1A\	.	.	.
=9-	=9-	=9-	=9-	=9-	=9-
*	*	*	*	*lig	*
1GG	.	.	.	1B-	.
.	.	2.G/	.	.	.
=10-	=10-	=10-	=10-	=10-	=10-
2.AA/	.	.	.	1A	.
.	.	4F/	.	.	.
.	.	1F/	.	.	.
4BB-/	.	.	.	.	.
*	*	*	*	*Xlig	*
=11-	=11-	=11-	=11-	=11-	=11-
1C	-ley-	.	.	1G	-lei-
.	.	2E/	-ley-	.	.
=12-	=12-	=12-	=12-	=12-	=12-
0FF;>	-ſon	0F;>	-ſon	0F;>	-ſon
!LO:PB:g=original	!	!LO:LB:g=original	!	!LO:LB:g=original	!
=14-	=14-	=14-	=14-	=14-	=14-
*M4/4	*	*M4/4	*	*M4/4	*
*met(C)	*	*met(C)	*	*met(C)	*
1r	.	1d	Chriſ-	1B-	Chriſ-
=15-	=15-	=15-	=15-	=15-	=15-
1F	Chriſ-	1.c	-te	1A	-te
=16-	=16-	=16-	=16-	=16-	=16-
1E	-te	.	.	1G	.
!	!	!LO:TX:t=P:problem=2\middle&colon; global	!	!	!
.	.	2c\	e-	.	.
=17-	=17-	=17-	=17-	=17-	=17-
*	*	*	*	*lig	*
2.D/	e-	2d\	.	1A	e-
.	.	2.d\	-ley-	.	.
4C/	.	.	.	.	.
=18-	=18-	=18-	=18-	=18-	=18-
4BB-/	.	.	.	1B-	.
!	!	!LO:TX:t=P:problem=4\middle&colon; global	!	!	!
4AA/	.	4c\	.	.	.
2GG/	.	2B-\	.	.	.
*	*	*	*	*Xlig	*
=19-	=19-	=19-	=19-	=19-	=19-
2AA/	.	1c	-ſon	1A	.
2FF/	.	.	.	.	.
=20-	=20-	=20-	=20-	=20-	=20-
*	*	*	*ij	*	*
1C	-lei-	2c\	e-	1G	-lei-
.	.	2.c\	-ley-	.	.
=21-	=21-	=21-	=21-	=21-	=21-
2FF/	-ſon	.	.	[>0F	-ſon
.	.	4B-\	.	.	.
*	*ij	*	*	*	*
2.FF/	e-	4A\	.	.	.
.	.	4G\	.	.	.
=22-	=22-	=22-	=22-	=22-	=22-
.	.	2A\	.	.	.
4GG/	.	.	.	.	.
2AA/	.	2c\	.	.	.
=23-	=23-	=23-	=23-	=23-	=23-
2.BB-/	.	2B-\	.	0.F]	.
.	.	1f\	.	.	.
4C/	.	.	.	.	.
=24-	=24-	=24-	=24-	=24-	=24-
2D/	.	.	.	.	.
2AA/	.	2e\	.	.	.
=25-	=25-	=25-	=25-	=25-	=25-
1BB-	-lei-	1d	.	.	.
=26-	=26-	=26-	=26-	=26-	=26-
0FF;>	-ſon	0c;<	-ſon	0F;<	.
*	*Xij	*	*Xij	*	*
!LO:LB:g=original	!	!LO:PB:g=original	!	!LO:LB:g=original	!
=28-	=28-	=28-	=28-	=28-	=28-
*M4/4	*	*M4/4	*	*M4/4	*
*met(C)	*	*met(C)	*	*met(C)	*
*	*	*	*	*lig	*
0r	.	0r	.	1F	Ky-
=29-	=29-	=29-	=29-	=29-	=29-
.	.	.	.	1G	.
*	*	*	*	*Xlig	*
=30-	=30-	=30-	=30-	=30-	=30-
*	*	*	*	*lig	*
1F	ky-	1r	.	1A	.
=31-	=31-	=31-	=31-	=31-	=31-
2D/	-ri-	1.f	Ky-	1B-	.
2BB-/	-e	.	.	.	.
*	*	*	*	*Xlig	*
=32-	=32-	=32-	=32-	=32-	=32-
2.D/	e-	.	.	1A	-ri-
.	.	2d\	-ri-	.	.
4E\	.	.	.	.	.
=33-	=33-	=33-	=33-	=33-	=33-
2F\	.	2c\	-e	1A	-e
2D\	.	1d\	e-	.	.
=34-	=34-	=34-	=34-	=34-	=34-
*lig	*	*	*	*	*
1E-X	.	.	.	1G	e-
.	.	2c\	-ley-	.	.
=35-	=35-	=35-	=35-	=35-	=35-
1D	.	2d\	.	1A	.
.	.	1d\	-ſon	.	.
*Xlig	*	*	*	*	*
=36-	=36-	=36-	=36-	=36-	=36-
*	*	*	*	*lig	*
1GG	.	.	.	1B-	.
*	*	*	*ij	*	*
.	.	2d\	e-	.	.
=37-	=37-	=37-	=37-	=37-	=37-
2.AA/	.	1c	.	1A	.
4BB-/	-lei-	.	.	.	.
*	*	*	*	*Xlig	*
=38-	=38-	=38-	=38-	=38-	=38-
1C	.	1c	-ley-	1G	-lei-
=39-	=39-	=39-	=39-	=39-	=39-
0FF;>	-ſon	0A;>	-ſon	0F;>	-ſon
*	*	*	*Xij	*	*
!LO:LB:g=original	!	!LO:LB:g=original	!	!LO:PB:g=original	!
=41-	=41-	=41-	=41-	=41-	=41-
*M4/4	*	*M4/4	*	*M4/4	*
*met(C)	*	*met(C)	*	*met(C)	*
!LO:TX:t=P:problem=metrum niezaznaczone	!	!	!	!	!
1C	Ky-	1c	ky-	1G	Ky-
=42-	=42-	=42-	=42-	=42-	=42-
1D	.	2A\	-ri-	1F	-ri-
!	!	!LO:N:acc=#	!	!	!
.	.	2Bn\	-e	.	.
=43-	=43-	=43-	=43-	=43-	=43-
1C	-ri-	1c	e-	1E	-e
=44-	=44-	=44-	=44-	=44-	=44-
2GG/	-e	2.B-y\	.	1G	e-
2.GG/	e-	.	.	.	.
!	!	!LO:TX:t=P:problem=4\left&colon; global	!	!	!
.	.	4c\	.	.	.
=45-	=45-	=45-	=45-	=45-	=45-
*	*	*	*	*lig	*
.	.	1.d	.	1B-	.
4AA/	.	.	.	.	.
4BB-/	.	.	.	.	.
4C/	.	.	.	.	.
=46-	=46-	=46-	=46-	=46-	=46-
4D\	.	.	.	1A	.
4Eny\	.	.	.	.	.
2F\	.	2c\	.	.	.
*	*	*	*	*Xlig	*
=47-	=47-	=47-	=47-	=47-	=47-
*	*	*	*	*lig	*
1BB-	-lei-	1d	.	1B-	.
=48-	=48-	=48-	=48-	=48-	=48-
1F	.	2c\	.	1A	.
.	.	2F/	.	.	.
*	*	*	*	*Xlig	*
=49-	=49-	=49-	=49-	=49-	=49-
*	*	*	*	*lig	*
1E	.	1G	.	1G	.
=50-	=50-	=50-	=50-	=50-	=50-
1D	.	2A/	.	1F	.
.	.	2F/	ley-	.	.
*	*	*	*	*Xlig	*
=51-	=51-	=51-	=51-	=51-	=51-
2C/	-ſon	1G	-ſon	1E	.
*	*ij	*	*	*	*
2.C/	Ky-	.	.	.	.
=52-	=52-	=52-	=52-	=52-	=52-
.	.	1r	.	1G	ley-
4C/	-ri-	.	.	.	.
2C/	-e	.	.	.	.
=53-	=53-	=53-	=53-	=53-	=53-
2D/	e-	2r	.	[>0F	-ſon
*	*	*	*ij	*	*
2AA/	.	2.c\	ky-	.	.
=54-	=54-	=54-	=54-	=54-	=54-
2.F\	.	.	.	.	.
.	.	4c\	-ri-	.	.
.	.	2c\	-e	.	.
4E\	.	.	.	.	.
*custos:D	*	*	*	*	*
!LO:LB:g=original	!	!	!	!	!
=55-	=55-	=55-	=55-	=55-	=55-
2D/	.	2d\	e-	0F_>	.
2C/	.	2A/	.	.	.
=56-	=56-	=56-	=56-	=56-	=56-
2BB-/	.	2.f\	.	.	.
2AA/	.	.	.	.	.
.	.	4e\	.	.	.
!	!	!LO:LB:g=original	!	!	!
=57-	=57-	=57-	=57-	=57-	=57-
1BB-	-lei-	1d	-ley-	0F_>	.
=58-	=58-	=58-	=58-	=58-	=58-
2FF/	-ſon	1c	-ſon	.	.
*	*Xij	*	*Xij	*	*
*	*ij	*	*	*	*
2.AA/	Ky-	.	.	.	.
=59-	=59-	=59-	=59-	=59-	=59-
.	.	2r	.	0F_>	.
4AA/	-ri-	.	.	.	.
*	*	*	*ij	*	*
2AA/	-e	2.f\	ky-	.	.
=60-	=60-	=60-	=60-	=60-	=60-
2BB-/	e-	.	.	.	.
.	.	4f\	-ri-	.	.
2FF/	.	2f\	-e	.	.
=61-	=61-	=61-	=61-	=61-	=61-
2.BB-/	.	1.d	e-	0F_>	.
4C/	.	.	.	.	.
=62-	=62-	=62-	=62-	=62-	=62-
2D/	.	.	.	.	.
2AA/	.	2c\	.	.	.
=63-	=63-	=63-	=63-	=63-	=63-
!	!	!	!	!LO:N:vis=0	!
1BB-	-lei-	1B-	-ley-	0.F];>	.
=64-	=64-	=64-	=64-	=64-	=64-
0FF;>	-ſon	0A;<	-ſon	.	.
*	*Xij	*	*Xij	*	*
=-	=-	=-	=-	=-	=-
*-	*-	*-	*-	*-	*-
!!!system-decoration: [(g1)]
!!!RDF**kern: > = above
!!!RDF**kern: < = below
!!!RDF**kern: l = terminal long
!!!ENC: Filip Voros
!!!END: 2021-10-25
!!!EED: Jędrzej Mróz
!!!ESR: 2021-10-28
!!!YEC: Copyright 2022 Narodowy Instytut Fryderyka Chopina (https://polishscores.org)
!!!YEM: License CC-BY-4.0 (https://creativecommons.org/licenses/by/4.0)
